X: 163
T: Little Birds in Little Cages
C: words: George Howland
C: music: Reichardt
%R: air, march
B: "The Everyday Song Book", 1927
F: http://www.library.pitt.edu/happybirthday/pdf/The_Everyday_Song_Book.pdf
Z: 2017 John Chambers <jc:trillian.mit.edu>
M: 4/4
L: 1/4
K: F
% - - - - - - - - - - - - - - - - - - - - - - - - - - - - -
[|!p!\
[cA]>[BG] [AF][AF] | [BG][GE] [AF][FF] | [dB]>[cA] [BG][BG] | [BG][AF] [G2E2] |
w: 1.~Lit-tle birds in lit-tle ca-ges   Sing when sum-mer birds are fled;
w: 2.~In their ca-ges what a plea-sure  Oft-en seem the lit-tle birds!
%
[BG]>[AF] [GE]"^cres."[GE] | [cA]>[BG] ([B/E/][A/F/]) [AF] | !mf![dF]>[eB] [fA][BG] | "^dim."[AF][GE] [F2F2] |]
w: Lit-tle words on lit-tle pa - ges      Speak when wing-ed words are dead.
w: On their pa-ges, too what plea - sure  Oft-en flows from lit-tle words.
% - - - - - - - - - - - - - - - - - - - - - - - - - - - - -

%%sep 1 1 500
%%sep 1 1 500

